svgs/duotone/border-center-h.svg

<svg xmlns="http://www.w3.org/2000/svg" viewBox="0 0 448 512"><!--! Font Awesome Pro 6.0.0-alpha3 by @fontawesome - https://fontawesome.com License - https://fontawesome.com/license (Commercial License) --><defs><style>.fa-secondary{opacity:.4}</style></defs><path class="fa-primary" d="M448 256c0 17.67-14.33 32-31.1 32H31.1C14.33 288 0 273.7 0 256s14.33-32 31.1-32h384C433.7 224 448 238.3 448 256z"/><path class="fa-secondary" d="M208 480h32c8.875 0 16-7.125 16-16v-32c0-8.875-7.125-16-16-16h-32C199.1 416 192 423.1 192 432v32C192 472.9 199.1 480 208 480zM304 480h32c8.875 0 16-7.125 16-16v-32c0-8.875-7.125-16-16-16h-32c-8.875 0-16 7.125-16 16v32C288 472.9 295.1 480 304 480zM432 416h-32c-8.875 0-16 7.125-16 16v32c0 8.875 7.125 16 16 16h32c8.875 0 16-7.125 16-16v-32C448 423.1 440.9 416 432 416zM112 480h32C152.9 480 160 472.9 160 464v-32C160 423.1 152.9 416 144 416h-32C103.1 416 96 423.1 96 432v32C96 472.9 103.1 480 112 480zM432 320h-32c-8.875 0-16 7.125-16 16v32c0 8.875 7.125 16 16 16h32c8.875 0 16-7.125 16-16v-32C448 327.1 440.9 320 432 320zM432 128h-32C391.1 128 384 135.1 384 144v32C384 184.9 391.1 192 400 192h32C440.9 192 448 184.9 448 176v-32C448 135.1 440.9 128 432 128zM208 384h32c8.875 0 16-7.125 16-16v-32c0-8.875-7.125-16-16-16h-32C199.1 320 192 327.1 192 336v32C192 376.9 199.1 384 208 384zM208 192h32C248.9 192 256 184.9 256 176v-32C256 135.1 248.9 128 240 128h-32C199.1 128 192 135.1 192 144v32C192 184.9 199.1 192 208 192zM208 96h32C248.9 96 256 88.88 256 80v-32C256 39.12 248.9 32 240 32h-32C199.1 32 192 39.12 192 48v32C192 88.88 199.1 96 208 96zM304 96h32C344.9 96 352 88.88 352 80v-32C352 39.12 344.9 32 336 32h-32C295.1 32 288 39.12 288 48v32C288 88.88 295.1 96 304 96zM432 32h-32C391.1 32 384 39.12 384 48v32C384 88.88 391.1 96 400 96h32C440.9 96 448 88.88 448 80v-32C448 39.12 440.9 32 432 32zM16 480h32C56.88 480 64 472.9 64 464v-32C64 423.1 56.88 416 48 416h-32C7.125 416 0 423.1 0 432v32C0 472.9 7.125 480 16 480zM16 384h32C56.88 384 64 376.9 64 368v-32C64 327.1 56.88 320 48 320h-32C7.125 320 0 327.1 0 336v32C0 376.9 7.125 384 16 384zM16 192h32C56.88 192 64 184.9 64 176v-32C64 135.1 56.88 128 48 128h-32C7.125 128 0 135.1 0 144v32C0 184.9 7.125 192 16 192zM16 96h32C56.88 96 64 88.88 64 80v-32C64 39.12 56.88 32 48 32h-32C7.125 32 0 39.12 0 48v32C0 88.88 7.125 96 16 96zM112 96h32C152.9 96 160 88.88 160 80v-32C160 39.12 152.9 32 144 32h-32C103.1 32 96 39.12 96 48v32C96 88.88 103.1 96 112 96z"/></svg>

<svg xmlns="http://www.w3.org/2000/svg" viewBox="0 0 448 512"><defs><style>.fa-secondary{opacity:.4}</style></defs><path d="M208 480h32a16 16 0 0 0 16-16v-32a16 16 0 0 0-16-16h-32a16 16 0 0 0-16 16v32a16 16 0 0 0 16 16zm96 0h32a16 16 0 0 0 16-16v-32a16 16 0 0 0-16-16h-32a16 16 0 0 0-16 16v32a16 16 0 0 0 16 16zm128-64h-32a16 16 0 0 0-16 16v32a16 16 0 0 0 16 16h32a16 16 0 0 0 16-16v-32a16 16 0 0 0-16-16zm-320 64h32a16 16 0 0 0 16-16v-32a16 16 0 0 0-16-16h-32a16 16 0 0 0-16 16v32a16 16 0 0 0 16 16zm320-160h-32a16 16 0 0 0-16 16v32a16 16 0 0 0 16 16h32a16 16 0 0 0 16-16v-32a16 16 0 0 0-16-16zm0-192h-32a16 16 0 0 0-16 16v32a16 16 0 0 0 16 16h32a16 16 0 0 0 16-16v-32a16 16 0 0 0-16-16zM208 384h32a16 16 0 0 0 16-16v-32a16 16 0 0 0-16-16h-32a16 16 0 0 0-16 16v32a16 16 0 0 0 16 16zm0-192h32a16 16 0 0 0 16-16v-32a16 16 0 0 0-16-16h-32a16 16 0 0 0-16 16v32a16 16 0 0 0 16 16zm0-96h32a16 16 0 0 0 16-16V48a16 16 0 0 0-16-16h-32a16 16 0 0 0-16 16v32a16 16 0 0 0 16 16zm96 0h32a16 16 0 0 0 16-16V48a16 16 0 0 0-16-16h-32a16 16 0 0 0-16 16v32a16 16 0 0 0 16 16zm128-64h-32a16 16 0 0 0-16 16v32a16 16 0 0 0 16 16h32a16 16 0 0 0 16-16V48a16 16 0 0 0-16-16zM16 480h32a16 16 0 0 0 16-16v-32a16 16 0 0 0-16-16H16a16 16 0 0 0-16 16v32a16 16 0 0 0 16 16zm0-96h32a16 16 0 0 0 16-16v-32a16 16 0 0 0-16-16H16a16 16 0 0 0-16 16v32a16 16 0 0 0 16 16zm0-192h32a16 16 0 0 0 16-16v-32a16 16 0 0 0-16-16H16a16 16 0 0 0-16 16v32a16 16 0 0 0 16 16zm0-96h32a16 16 0 0 0 16-16V48a16 16 0 0 0-16-16H16A16 16 0 0 0 0 48v32a16 16 0 0 0 16 16zm96 0h32a16 16 0 0 0 16-16V48a16 16 0 0 0-16-16h-32a16 16 0 0 0-16 16v32a16 16 0 0 0 16 16z" class="fa-secondary"/><path d="M448 240v32a16 16 0 0 1-16 16H16a16 16 0 0 1-16-16v-32a16 16 0 0 1 16-16h416a16 16 0 0 1 16 16z" class="fa-primary"/></svg>
